src/assets/images/volume-light.svg

<svg viewBox="0 0 480 512" xmlns="http://www.w3.org/2000/svg"><path d="m342.91 193.57c-7.81-3.8-17.5-.48-21.34 7.5-3.81 7.97-.44 17.53 7.53 21.34 14.12 6.79 22.9 19.65 22.9 33.59s-8.78 26.8-22.9 33.58c-7.97 3.81-11.34 13.38-7.53 21.34 3.86 8.05 13.54 11.29 21.34 7.5 25.34-12.14 41.09-36.06 41.09-62.42s-15.75-50.29-41.09-62.43zm-111.1-129.57c-5.91 0-11.92 2.18-16.78 7.05l-88.97 88.95h-102.06c-13.26 0-24 10.74-24 24v144c0 13.25 10.74 24 24 24h102.06l88.97 88.95c4.87 4.87 10.88 7.05 16.78 7.05 12.33 0 24.19-9.52 24.19-24.02v-335.96c0-14.51-11.87-24.02-24.19-24.02zm-7.81 340.67-84.69-84.67h-107.31v-128h107.31l84.69-84.67zm256-148.68c0-66.12-34.02-126.62-88.81-157.87-7.69-4.38-17.59-1.78-22.04 5.89-4.45 7.66-1.77 17.44 5.96 21.86 44.77 25.55 72.61 75.4 72.61 130.12s-27.84 104.58-72.61 130.12c-7.72 4.42-10.4 14.2-5.96 21.86 4.3 7.38 14.06 10.44 22.04 5.89 54.79-31.24 88.81-91.74 88.81-157.87z" fill="#fff"/></svg>

<svg aria-hidden="true" focusable="false" data-prefix="fal" data-icon="volume" class="svg-inline--fa fa-volume fa-w-15" role="img" xmlns="http://www.w3.org/2000/svg" viewBox="0 0 480 512"><path fill="#fff" d="M342.91 193.57c-7.81-3.8-17.5-.48-21.34 7.5-3.81 7.97-.44 17.53 7.53 21.34C343.22 229.2 352 242.06 352 256c0 13.94-8.78 26.8-22.9 33.58-7.97 3.81-11.34 13.38-7.53 21.34 3.86 8.05 13.54 11.29 21.34 7.5C368.25 306.28 384 282.36 384 256s-15.75-50.29-41.09-62.43zM231.81 64c-5.91 0-11.92 2.18-16.78 7.05L126.06 160H24c-13.26 0-24 10.74-24 24v144c0 13.25 10.74 24 24 24h102.06l88.97 88.95c4.87 4.87 10.88 7.05 16.78 7.05 12.33 0 24.19-9.52 24.19-24.02V88.02C256 73.51 244.13 64 231.81 64zM224 404.67L139.31 320H32V192h107.31L224 107.33v297.34zm256-148.68c0-66.12-34.02-126.62-88.81-157.87-7.69-4.38-17.59-1.78-22.04 5.89-4.45 7.66-1.77 17.44 5.96 21.86 44.77 25.55 72.61 75.4 72.61 130.12s-27.84 104.58-72.61 130.12c-7.72 4.42-10.4 14.2-5.96 21.86 4.3 7.38 14.06 10.44 22.04 5.89C445.98 382.62 480 322.12 480 255.99z"></path></svg>
